X: 7285
T: Claudine
R: reel
M: 4/4
K: Dmajor
|:Acde fded|=cded cAGE|Acde fded|1 ,3 =cAGE FD D2:|2 ,4 =cage fd d2||
|:"4x" AAFA- AAFA|G2 E=C GCEC|AAFA- AAFA|Bcde fdd2:|

